ui/desktop/src/images/icon.svg

<?xml version="1.0" encoding="UTF-8" standalone="no"?>
<!-- Created with Inkscape (http://www.inkscape.org/) -->

<svg
   width="240mm"
   height="240mm"
   viewBox="0 0 240 240"
   version="1.1"
   id="svg1"
   xml:space="preserve"
   inkscape:version="1.4.3 (0d15f75, 2025-12-25)"
   sodipodi:docname="icon.svg"
   inkscape:export-filename="icon@2x.png"
   inkscape:export-xdpi="108.37334"
   inkscape:export-ydpi="108.37334"
   xmlns:inkscape="http://www.inkscape.org/namespaces/inkscape"
   xmlns:sodipodi="http://sodipodi.sourceforge.net/DTD/sodipodi-0.dtd"
   xmlns="http://www.w3.org/2000/svg"
   xmlns:svg="http://www.w3.org/2000/svg"><sodipodi:namedview
     id="namedview1"
     pagecolor="#ffffff"
     bordercolor="#000000"
     borderopacity="0.25"
     inkscape:showpageshadow="2"
     inkscape:pageopacity="0.0"
     inkscape:pagecheckerboard="0"
     inkscape:deskcolor="#d1d1d1"
     inkscape:document-units="mm"
     inkscape:zoom="0.5098596"
     inkscape:cx="552.11278"
     inkscape:cy="432.472"
     inkscape:window-width="1728"
     inkscape:window-height="1052"
     inkscape:window-x="0"
     inkscape:window-y="65"
     inkscape:window-maximized="0"
     inkscape:current-layer="layer1" /><defs
     id="defs1" /><g
     inkscape:label="Слой 1"
     inkscape:groupmode="layer"
     id="layer1"><g
       transform="matrix(0.32693778,0,0,0.32552298,-3.5051907,-4.7247838)"
       id="g1"><path
         d="m 455.145,485.687 c 18.641,-4.048 38.414,-15.065 38.414,-15.065 l -34.607,-28.507 c -17.108,-14.081 -31.67,-30.999 -43.054,-50.007 -15.731,-26.263 -37.467,-48.425 -63.413,-64.663 l -12.672,-7.379 c -4.342,-3.018 -7.369,-7.722 -7.8,-13.029 -0.276,-3.422 0.544,-6.481 2.457,-9.173 6.598,-9.3 40.702,-49.767 46.952,-54.938 8.049,-6.653 17.018,-12.187 25.339,-18.523 1.183,-0.902 2.37,-1.799 3.539,-2.714 0.041,-0.041 0.1,-0.073 0.136,-0.109 2.67,-2.108 5.19,-4.347 7.193,-7.002 7.233,-8.376 8.991,-15.781 9.422,-19.058 -0.979,-3.154 -3.898,-10.206 -12.033,-18.341 5.099,0.313 11.272,4.346 16.869,9.091 3.757,-6.005 7.691,-12.35 11.62,-18.708 2.624,-4.247 -1.269,-7.424 -1.378,-7.523 l -0.022,-0.005 c 0,0 0,-0.018 -0.005,-0.022 -0.1,-0.109 -3.277,-4.002 -7.514,-1.378 -9.06,5.606 -18.115,11.217 -26.168,16.315 0,0 -9.545,-0.199 -20.848,9.563 -2.66,2.008 -4.899,4.527 -7.002,7.192 -0.041,0.041 -0.077,0.095 -0.109,0.136 -0.92,1.165 -1.817,2.352 -2.714,3.54 -6.341,8.325 -11.87,17.29 -18.523,25.339 -5.167,6.254 -45.638,40.353 -54.938,46.952 -2.692,1.913 -5.747,2.737 -9.173,2.456 -5.302,-0.426 -10.011,-3.458 -13.03,-7.799 l -7.378,-12.672 c -16.238,-25.955 -38.4,-47.682 -64.663,-63.413 -19.008,-11.384 -35.922,-25.951 -50.007,-43.055 l -28.516,-34.607 c 0,0 -11.022,19.769 -15.065,38.414 5.624,6.839 20.295,23.812 37.372,36.774 -18.36,-8.634 -31.933,-15.31 -42.638,-20.893 -1.65,12.209 -1.006,30.673 0.693,44.972 11.589,5.071 31.321,12.884 51.408,17.036 -16.067,3.757 -33.692,4.441 -47.302,4.174 2.398,8.851 5.733,17.879 10.22,26.961 1.908,4.201 3.997,8.303 6.254,12.318 7.202,1.981 35.478,6.1 50.524,2.719 -14.969,5.344 -40.1,14.322 -40.1,14.322 19.302,24.015 40.635,43.553 40.635,43.553 32.449,-17.448 39.846,-19.832 64.183,-35.749 -39.411,32.069 -49.64,45.162 -60.703,58.618 l -7.709,10.818 c -4.006,5.62 -7.482,11.589 -10.387,17.847 -9.721,20.916 -23.481,65.484 -23.481,65.484 -2.456,7.768 3.236,13.461 10.777,10.778 0,0 44.56,-13.76 65.484,-23.481 6.255,-2.91 12.233,-6.386 17.848,-10.388 l 10.818,-7.709 c 3.63,-2.986 7.238,-5.914 11.199,-9.367 0,0 27.233,32.263 55.227,53.487 0,0 8.979,-25.13 14.322,-40.1 -3.386,15.051 0.734,43.327 2.719,50.524 4.006,2.257 8.117,4.346 12.318,6.254 9.087,4.491 18.11,7.823 26.962,10.22 -0.263,-13.614 0.417,-31.235 4.174,-47.301 4.151,20.086 11.96,39.823 17.036,51.407 14.298,1.7 32.762,2.343 44.972,0.693 -5.584,-10.704 -12.26,-24.287 -20.893,-42.637 12.961,17.077 29.934,31.747 36.773,37.371 z"
         fill="#000000"
         id="path1" /></g><g
       style="opacity:1;mix-blend-mode:color-burn;fill:#050122;fill-opacity:1;fill-rule:nonzero"
       id="g3"
       transform="matrix(1.4192109,0,0,1.423508,154.42954,151.51164)"><path
         d="M 24.9953,4.36994 32.3327,8.68251 36.0532,6.50232 24.9953,0 6.52481,10.8627 10.2264,13.0429 Z"
         fill="#050122"
         id="path1-8"
         style="fill:#050122;fill-opacity:1;fill-rule:nonzero" /><path
         d="M 39.7549,8.68259 24.9954,17.3555 17.658,13.043 13.947,15.2231 24.9954,21.7159 43.4753,10.8628 Z"
         fill="#050122"
         id="path2"
         style="fill:#050122;fill-opacity:1;fill-rule:nonzero" /><path
         d="M 8.71101,24.332 5,22.1518 V 35.1373 L 23.4705,46 V 41.6396 L 8.71101,32.9571 Z"
         fill="#050122"
         id="path3"
         style="fill:#050122;fill-opacity:1;fill-rule:nonzero" /><path
         d="m 5,17.7913 14.7595,8.673 v 8.6251 l 3.711,2.1897 V 24.2841 L 5,13.4309 Z"
         fill="#050122"
         id="path4"
         style="fill:#050122;fill-opacity:1;fill-rule:nonzero" /><path
         d="M 37.5778,22.1517 V 17.7914 L 26.52,24.2841 v 21.7158 l 3.711,-2.1801 V 26.4643 Z"
         fill="#050122"
         id="path5"
         style="fill:#050122;fill-opacity:1;fill-rule:nonzero" /><path
         d="M 41.2796,15.6111 V 32.957 l -7.3375,4.3221 v 4.3604 L 45,35.1372 V 13.4309 Z"
         fill="#050122"
         id="path6"
         style="fill:#050122;fill-opacity:1;fill-rule:nonzero" /></g></g></svg>

<?xml version="1.0" encoding="UTF-8" standalone="no"?>
<svg width="2048" height="2048" viewBox="0 0 2048 2048" xmlns="http://www.w3.org/2000/svg">    
    <!-- Rounded rectangle background - change fill color here -->
    <rect x="200" y="200" width="1648" height="1648" rx="400" ry="400" fill="#ffffff" stroke="none"/>
    
    <!-- Goose icon in black - adjust transform to resize/move -->
    <g transform="translate(128, 94) scale(3)">
        <path d="M455.145 485.687C473.786 481.639 493.559 470.622 493.559 470.622L458.952 442.115C441.844 428.034 427.282 411.116 415.898 392.108C400.167 365.845 378.431 343.683 352.485 327.445L339.813 320.066C335.471 317.048 332.444 312.344 332.013 307.037C331.737 303.615 332.557 300.556 334.47 297.864C341.068 288.564 375.172 248.097 381.422 242.926C389.471 236.273 398.44 230.739 406.761 224.403C407.944 223.501 409.131 222.604 410.3 221.689C410.341 221.648 410.4 221.616 410.436 221.58C413.106 219.472 415.626 217.233 417.629 214.578C424.862 206.202 426.62 198.797 427.051 195.52C426.072 192.366 423.153 185.314 415.018 177.179C420.117 177.492 426.29 181.525 431.887 186.27C435.644 180.265 439.578 173.92 443.507 167.562C446.131 163.315 442.238 160.138 442.129 160.039L442.107 160.034C442.107 160.034 442.107 160.016 442.102 160.012C442.002 159.903 438.825 156.01 434.588 158.634C425.528 164.24 416.473 169.851 408.42 174.949C408.42 174.949 398.875 174.75 387.572 184.512C384.912 186.52 382.673 189.039 380.57 191.704C380.529 191.745 380.493 191.799 380.461 191.84C379.541 193.005 378.644 194.192 377.747 195.38C371.406 203.705 365.877 212.67 359.224 220.719C354.057 226.973 313.586 261.072 304.286 267.671C301.594 269.584 298.539 270.408 295.113 270.127C289.811 269.701 285.102 266.669 282.083 262.328L274.705 249.656C258.467 223.701 236.305 201.974 210.042 186.243C191.034 174.859 174.12 160.292 160.035 143.188L131.519 108.581C131.519 108.581 120.497 128.35 116.454 146.995C122.078 153.834 136.749 170.807 153.826 183.769C135.466 175.135 121.893 168.459 111.188 162.876C109.538 175.085 110.182 193.549 111.881 207.848C123.47 212.919 143.202 220.732 163.289 224.884C147.222 228.641 129.597 229.325 115.987 229.058C118.385 237.909 121.72 246.937 126.207 256.019C128.115 260.22 130.204 264.322 132.461 268.337C139.663 270.318 167.939 274.437 182.985 271.056C168.016 276.4 142.885 285.378 142.885 285.378C162.187 309.393 183.52 328.931 183.52 328.931C215.969 311.483 223.366 309.099 247.703 293.182C208.292 325.251 198.063 338.344 187 351.8L179.291 362.618C175.285 368.238 171.809 374.207 168.904 380.465C159.183 401.381 145.423 445.949 145.423 445.949C142.967 453.717 148.659 459.41 156.2 456.727C156.2 456.727 200.76 442.967 221.684 433.246C227.939 430.336 233.917 426.86 239.532 422.858L250.35 415.149C253.98 412.163 257.588 409.235 261.549 405.782C261.549 405.782 288.782 438.045 316.776 459.269C316.776 459.269 325.755 434.139 331.098 419.169C327.712 434.22 331.832 462.496 333.817 469.693C337.823 471.95 341.934 474.039 346.135 475.947C355.222 480.438 364.245 483.77 373.097 486.167C372.834 472.553 373.514 454.932 377.271 438.866C381.422 458.952 389.231 478.689 394.307 490.273C408.605 491.973 427.069 492.616 439.279 490.966C433.695 480.262 427.019 466.679 418.386 448.329C431.347 465.406 448.32 480.076 455.159 485.7L455.145 485.687Z" fill="black"/>
    </g>
</svg>
